X:17
T:Reel du nord
Z:robin.beech@mcgill.ca
S:Laurence Beaudry
R:reel
M:4/4
L:1/8
K:Bmin
FBBB FBBB | FBdB c4 | FBBB FBBB | fedc B4 |
FBBB FBBB | FBdB c4 | FBBB FBBB | fedc B4 :|
Acec Acec | dcdf a4 | Acec Acec | defd A4 |
Acec Acec | dcdf aaa2 | Acec Acec | dfec d4 :|

